apps/scalable/user/user.svg

<svg xmlns="http://www.w3.org/2000/svg" style="isolation:isolate" width="256" height="256"><defs><filter id="a" width="270.648" height="254.338" x="-7.32" y="2.95" filterUnits="userSpaceOnUse"><feGaussianBlur xmlns="http://www.w3.org/2000/svg" in="SourceGraphic" stdDeviation="4.294"/><feOffset xmlns="http://www.w3.org/2000/svg" dy="4" result="pf_100_offsetBlur"/><feFlood xmlns="http://www.w3.org/2000/svg" flood-opacity=".4"/><feComposite xmlns="http://www.w3.org/2000/svg" in2="pf_100_offsetBlur" operator="in" result="pf_100_dropShadow"/><feBlend xmlns="http://www.w3.org/2000/svg" in="SourceGraphic" in2="pf_100_dropShadow"/></filter></defs><path fill="#234DB8" d="M165.685 11.947c74.055 0 84.639 10.557 84.639 84.544v59.251c0 73.986-10.584 84.543-84.639 84.543h-75.37c-74.055 0-84.639-10.557-84.639-84.543V96.491c0-73.987 10.584-84.544 84.639-84.544h75.37z" filter="url(#a)"/><path fill="#FFF" d="M8.476 55.74C6.729 66.667 6.158 80.255 6.158 97.205v59.251c0 73.986 10.584 84.544 84.64 84.544h75.369c55.135 0 75.078-5.874 81.675-39.397L8.476 55.74z" opacity=".05"/><g filter="url(#b)" opacity=".4"><path d="M87.97 176.83h80.062v7.278H87.97zM87.97 191.39h80.062v7.278H87.97z" opacity=".4"/><path d="M128 53.333c-3.659 0-7.149.684-10.358 2.073l-.001.001a23.946 23.946 0 0 0-8.325 5.74l-.01.011-.007.008-.004.004-.016.019c-2.287 2.51-4.045 5.52-5.279 8.923l.04-.094-.043.109.002-.011c-.005.011-.007.024-.011.035a.036.036 0 0 0-.003.007c-.006.018-.006.019-.001.002l-.043.139v.001c-1.213 3.362-1.805 7.022-1.805 10.926 0 4.029.603 7.784 1.865 11.204 1.236 3.35 2.995 6.325 5.274 8.827l.001.001.001.003.002.001.016.018.011.013.01.011c.945 1.006 1.995 1.872 3.081 2.683-.677.21-1.365.388-2.022.646-5.018 1.977-9.281 4.724-12.64 8.268l-.008.009-.021.021-.025.031c-3.278 3.559-5.746 7.761-7.368 12.494l-.021.045-.024.081c-1.504 4.705-2.241 9.75-2.241 15.087v10l1.358 1.088.003.003.044.035s3.553 2.8 9.999 5.378c6.439 2.576 15.989 5.101 28.568 5.101 12.58 0 22.129-2.525 28.568-5.101 6.446-2.578 9.999-5.378 9.999-5.378l.044-.035.003-.003.505-.405h.855v-10.683c0-5.345-.79-10.402-2.39-15.113l-.005-.014-.021-.061-.014-.029c-1.542-4.758-4.028-8.992-7.415-12.553l-.001-.001c-2.472-2.607-5.437-4.78-8.825-6.533l-.797-.413-.675.593a28.96 28.96 0 0 1-4.272 3.098l-2.212 1.321 2.368 1.013c3.714 1.59 6.678 3.607 9 6.056l.009.009c2.642 2.78 4.534 5.988 5.752 9.786l.023.068.007.019c1.327 3.892 2.006 8.122 2.006 12.753v6.202c-1.01.692-2.808 1.816-6.715 3.379-5.643 2.257-14.212 4.565-25.796 4.565s-20.155-2.308-25.798-4.566c-3.908-1.563-5.705-2.686-6.716-3.378v-6.202c0-4.639.637-8.881 1.88-12.78v-.002c1.312-3.834 3.229-7.078 5.797-9.868l.002-.003c2.521-2.653 5.78-4.804 9.941-6.443 4.044-1.593 8.979-2.451 14.842-2.456.008-.001.037.001.051.001 3.63 0 7.089-.642 10.279-1.951l.001.002.059-.023.08-.037.014-.007c3.142-1.372 5.901-3.328 8.174-5.815 2.348-2.503 4.152-5.489 5.394-8.856 1.262-3.42 1.865-7.177 1.865-11.206 0-3.97-.605-7.691-1.86-11.099l-.003-.01-.027-.069-.02-.038c-1.237-3.372-3.017-6.357-5.346-8.841l-.005-.007-.037-.038-.041-.035-.001-.002a23.062 23.062 0 0 0-8.17-5.68l-.002-.001c-3.081-1.333-6.425-1.997-9.923-2.049l-.031-.021H128v-.001zm-.012 7.46h.023c2.746.001 5.166.493 7.396 1.461l.005.001.015.007.025.011.021.009c2.245.925 4.074 2.205 5.646 3.93l.002.002.015.017.035.035c1.621 1.729 2.89 3.819 3.825 6.402v.001l.001.002.008.022c.918 2.489 1.404 5.309 1.404 8.533 0 3.289-.489 6.142-1.404 8.623-.933 2.528-2.203 4.599-3.84 6.342l-.024.023-.027.031c-1.574 1.727-3.422 3.043-5.677 4.025-2.213.907-4.624 1.377-7.345 1.387h-.128c-2.739-.005-5.163-.475-7.387-1.385-2.259-.983-4.153-2.308-5.795-4.05-1.587-1.745-2.844-3.829-3.783-6.372-.915-2.481-1.402-5.334-1.402-8.623 0-3.224.484-6.044 1.402-8.533l.016-.04c.94-2.593 2.195-4.694 3.765-6.422a16.215 16.215 0 0 1 5.742-3.946l.013-.005.033-.016.022-.009.01-.005.002-.001c2.227-.965 4.643-1.456 7.386-1.458v.001zm9.975 45.463l.125.299-.128-.297.003-.002z"/></g><defs><filter id="b" width="126.222" height="191.494" x="64.89" y="30.25" filterUnits="userSpaceOnUse"><feGaussianBlur xmlns="http://www.w3.org/2000/svg" stdDeviation="4.955"/></filter></defs><path fill="#FFF" d="M87.97 176.83h80.062v7.278H87.97zM87.97 191.39h80.062v7.278H87.97z" opacity=".4"/><path fill="#E4EBFE" d="M128 53.333c-3.659 0-7.149.684-10.358 2.073l-.001.001a23.946 23.946 0 0 0-8.325 5.74l-.01.011-.007.008-.004.004-.016.019c-2.287 2.51-4.045 5.52-5.279 8.923l.04-.094-.043.109.002-.011c-.005.011-.007.024-.011.035a.036.036 0 0 0-.003.007c-.006.018-.006.019-.001.002l-.043.139v.001c-1.213 3.362-1.805 7.022-1.805 10.926 0 4.029.603 7.784 1.865 11.204 1.236 3.35 2.995 6.325 5.274 8.827l.001.001.001.003.002.001.016.018.011.013.01.011c.945 1.006 1.995 1.872 3.081 2.683-.677.21-1.365.388-2.022.646-5.018 1.977-9.281 4.724-12.64 8.268l-.008.009-.021.021-.025.031c-3.278 3.559-5.746 7.761-7.368 12.494l-.021.045-.024.081c-1.504 4.705-2.241 9.75-2.241 15.087v10l1.358 1.088.003.003.044.035s3.553 2.8 9.999 5.378c6.439 2.576 15.989 5.101 28.568 5.101 12.58 0 22.129-2.525 28.568-5.101 6.446-2.578 9.999-5.378 9.999-5.378l.044-.035.003-.003.505-.405h.855v-10.683c0-5.345-.79-10.402-2.39-15.113l-.005-.014-.021-.061-.014-.029c-1.542-4.758-4.028-8.992-7.415-12.553l-.001-.001c-2.472-2.607-5.437-4.78-8.825-6.533l-.797-.413-.675.593a28.96 28.96 0 0 1-4.272 3.098l-2.212 1.321 2.368 1.013c3.714 1.59 6.678 3.607 9 6.056l.009.009c2.642 2.78 4.534 5.988 5.752 9.786l.023.068.007.019c1.327 3.892 2.006 8.122 2.006 12.753v6.202c-1.01.692-2.808 1.816-6.715 3.379-5.643 2.257-14.212 4.565-25.796 4.565s-20.155-2.308-25.798-4.566c-3.908-1.563-5.705-2.686-6.716-3.378v-6.202c0-4.639.637-8.881 1.88-12.78v-.002c1.312-3.834 3.229-7.078 5.797-9.868l.002-.003c2.521-2.653 5.78-4.804 9.941-6.443 4.044-1.593 8.979-2.451 14.842-2.456.008-.001.037.001.051.001 3.63 0 7.089-.642 10.279-1.951l.001.002.059-.023.08-.037.014-.007c3.142-1.372 5.901-3.328 8.174-5.815 2.348-2.503 4.152-5.489 5.394-8.856 1.262-3.42 1.865-7.177 1.865-11.206 0-3.97-.605-7.691-1.86-11.099l-.003-.01-.027-.069-.02-.038c-1.237-3.372-3.017-6.357-5.346-8.841l-.005-.007-.037-.038-.041-.035-.001-.002a23.062 23.062 0 0 0-8.17-5.68l-.002-.001c-3.081-1.333-6.425-1.997-9.923-2.049l-.031-.021H128v-.001zm-.012 7.46h.023c2.746.001 5.166.493 7.396 1.461l.005.001.015.007.025.011.021.009c2.245.925 4.074 2.205 5.646 3.93l.002.002.015.017.035.035c1.621 1.729 2.89 3.819 3.825 6.402v.001l.001.002.008.022c.918 2.489 1.404 5.309 1.404 8.533 0 3.289-.489 6.142-1.404 8.623-.933 2.528-2.203 4.599-3.84 6.342l-.024.023-.027.031c-1.574 1.727-3.422 3.043-5.677 4.025-2.213.907-4.624 1.377-7.345 1.387h-.128c-2.739-.005-5.163-.475-7.387-1.385-2.259-.983-4.153-2.308-5.795-4.05-1.587-1.745-2.844-3.829-3.783-6.372-.915-2.481-1.402-5.334-1.402-8.623 0-3.224.484-6.044 1.402-8.533l.016-.04c.94-2.593 2.195-4.694 3.765-6.422a16.215 16.215 0 0 1 5.742-3.946l.013-.005.033-.016.022-.009.01-.005.002-.001c2.227-.965 4.643-1.456 7.386-1.458v.001zm9.975 45.463l.125.299-.128-.297.003-.002z"/><g opacity=".4"><linearGradient id="c" x1=".517" x2=".517" y2="1"><stop offset="0%" stop-color="#fff"/><stop offset="12.5%" stop-opacity=".098" stop-color="#fff"/><stop offset="92.5%" stop-opacity=".098"/><stop offset="100%" stop-opacity=".498"/></linearGradient><path fill="none" stroke="url(#c)" stroke-linecap="round" stroke-linejoin="round" stroke-width="4.077" d="M165.685 11.947c74.055 0 84.639 10.557 84.639 84.544v59.251c0 73.986-10.584 84.543-84.639 84.543h-75.37c-74.055 0-84.639-10.557-84.639-84.543V96.491c0-73.987 10.584-84.544 84.639-84.544h75.37z" vector-effect="non-scaling-stroke"/></g></svg>

<svg xmlns="http://www.w3.org/2000/svg" style="isolation:isolate" width="256" height="256" viewBox="0 0 256 256">
 <defs>
  <filter id="tgwIbz1zMLm9yxz4vFEJpCa047hLdng9" width="270.648" height="254.338" x="-7.32" y="2.95" filterUnits="userSpaceOnUse">
   <feGaussianBlur xmlns="http://www.w3.org/2000/svg" in="SourceGraphic" stdDeviation="4.294"/>
   <feOffset xmlns="http://www.w3.org/2000/svg" dx="0" dy="4" result="pf_100_offsetBlur"/>
   <feFlood xmlns="http://www.w3.org/2000/svg" flood-opacity=".4"/>
   <feComposite xmlns="http://www.w3.org/2000/svg" in2="pf_100_offsetBlur" operator="in" result="pf_100_dropShadow"/>
   <feBlend xmlns="http://www.w3.org/2000/svg" in="SourceGraphic" in2="pf_100_dropShadow" mode="normal"/>
  </filter>
 </defs>
 <g filter="url(#tgwIbz1zMLm9yxz4vFEJpCa047hLdng9)">
  <path fill="#234DB8" d="M 165.685 11.947 C 239.74 11.947 250.324 22.504 250.324 96.491 L 250.324 155.742 C 250.324 229.728 239.74 240.285 165.685 240.285 L 90.315 240.285 C 16.26 240.285 5.676 229.728 5.676 155.742 L 5.676 96.491 C 5.676 22.504 16.26 11.947 90.315 11.947 L 165.685 11.947 Z"/>
 </g>
 <g opacity=".05">
  <path fill="#FFFFFF" d="M 8.476 55.74 C 6.729 66.667 6.158 80.255 6.158 97.205 L 6.158 156.456 C 6.158 230.442 16.742 241 90.798 241 L 166.167 241 C 221.302 241 241.245 235.126 247.842 201.603 L 8.476 55.74 Z"/>
 </g>
 <g>
  <g style="opacity:0.4" filter="url(#M63MaBMnHIy0APdok842SY4cU04KkYOV)">
   <g opacity=".4">
    <rect width="80.062" height="7.278" x="87.97" y="176.83" transform="matrix(1,0,0,1,0,0)"/>
   </g>
   <g opacity=".4">
    <rect width="80.062" height="7.278" x="87.97" y="191.39" transform="matrix(1,0,0,1,0,0)"/>
   </g>
   <path d="M 128 53.333 C 124.341 53.333 120.851 54.017 117.642 55.406 L 117.641 55.407 C 114.468 56.723 111.657 58.656 109.316 61.147 L 109.306 61.158 L 109.299 61.166 L 109.295 61.17 L 109.279 61.189 C 106.992 63.699 105.234 66.709 104 70.112 L 104.04 70.018 C 104.04 70.018 104.013 70.086 103.997 70.127 L 103.999 70.116 C 103.994 70.127 103.992 70.14 103.988 70.151 C 103.987 70.153 103.985 70.157 103.985 70.158 C 103.979 70.176 103.979 70.177 103.984 70.16 L 103.941 70.299 L 103.941 70.3 C 102.728 73.662 102.136 77.322 102.136 81.226 C 102.136 85.255 102.739 89.01 104.001 92.43 C 105.237 95.78 106.996 98.755 109.275 101.257 L 109.276 101.258 L 109.277 101.261 L 109.279 101.262 L 109.295 101.28 L 109.306 101.293 L 109.316 101.304 C 110.261 102.31 111.311 103.176 112.397 103.987 C 111.72 104.197 111.032 104.375 110.375 104.633 C 105.357 106.61 101.094 109.357 97.735 112.901 L 97.727 112.91 L 97.706 112.931 L 97.681 112.962 C 94.403 116.521 91.935 120.723 90.313 125.456 L 90.292 125.501 L 90.268 125.582 C 88.764 130.287 88.027 135.332 88.027 140.669 L 88.027 150.669 L 89.385 151.757 L 89.388 151.76 L 89.432 151.795 C 89.432 151.795 92.985 154.595 99.431 157.173 C 105.87 159.749 115.42 162.274 127.999 162.274 C 140.579 162.274 150.128 159.749 156.567 157.173 C 163.013 154.595 166.566 151.795 166.566 151.795 L 166.61 151.76 L 166.613 151.757 L 167.118 151.352 L 167.973 151.352 L 167.973 140.669 C 167.973 135.324 167.183 130.267 165.583 125.556 C 165.581 125.551 165.58 125.546 165.578 125.542 L 165.557 125.481 L 165.543 125.452 C 164.001 120.694 161.515 116.46 158.128 112.899 L 158.127 112.898 C 155.655 110.291 152.69 108.118 149.302 106.365 L 148.505 105.952 L 147.83 106.545 C 146.513 107.703 145.076 108.736 143.558 109.643 L 141.346 110.964 L 143.714 111.977 C 147.428 113.567 150.392 115.584 152.714 118.033 L 152.723 118.042 C 155.365 120.822 157.257 124.03 158.475 127.828 L 158.498 127.896 L 158.505 127.915 C 159.832 131.807 160.511 136.037 160.511 140.668 L 160.511 146.87 C 159.501 147.562 157.703 148.686 153.796 150.249 C 148.153 152.506 139.584 154.814 128 154.814 C 116.416 154.814 107.845 152.506 102.202 150.248 C 98.294 148.685 96.497 147.562 95.486 146.87 L 95.486 140.668 C 95.486 136.029 96.123 131.787 97.366 127.888 C 97.366 127.887 97.365 127.886 97.366 127.886 C 98.678 124.052 100.595 120.808 103.163 118.018 L 103.165 118.015 C 105.686 115.362 108.945 113.211 113.106 111.572 C 117.15 109.979 122.085 109.121 127.948 109.116 C 127.956 109.115 127.985 109.117 127.999 109.117 C 131.629 109.117 135.088 108.475 138.278 107.166 L 138.279 107.168 L 138.338 107.145 L 138.418 107.108 L 138.432 107.101 C 141.574 105.729 144.333 103.773 146.606 101.286 C 148.954 98.783 150.758 95.797 152 92.43 C 153.262 89.01 153.865 85.253 153.865 81.224 C 153.865 77.254 153.26 73.533 152.005 70.125 L 152.002 70.115 L 151.975 70.046 L 151.955 70.008 C 150.718 66.636 148.938 63.651 146.609 61.167 C 146.607 61.165 146.606 61.162 146.604 61.16 L 146.567 61.122 L 146.526 61.087 L 146.525 61.085 C 144.251 58.622 141.493 56.705 138.355 55.405 L 138.353 55.404 C 135.272 54.071 131.928 53.407 128.43 53.355 L 128.399 53.334 L 128 53.334 L 128 53.333 Z M 127.988 60.793 L 128.011 60.793 C 130.757 60.794 133.177 61.286 135.407 62.254 L 135.412 62.255 L 135.427 62.262 L 135.452 62.273 L 135.473 62.282 C 137.718 63.207 139.547 64.487 141.119 66.212 L 141.121 66.214 L 141.136 66.231 L 141.171 66.266 C 142.792 67.995 144.061 70.085 144.996 72.668 L 144.996 72.669 C 144.996 72.67 144.997 72.67 144.997 72.671 L 145.005 72.693 C 145.923 75.182 146.409 78.002 146.409 81.226 C 146.409 84.515 145.92 87.368 145.005 89.849 C 144.072 92.377 142.802 94.448 141.165 96.191 L 141.141 96.214 L 141.114 96.245 C 139.54 97.972 137.692 99.288 135.437 100.27 C 133.224 101.177 130.813 101.647 128.092 101.657 L 128.002 101.657 C 127.991 101.657 127.979 101.657 127.966 101.657 L 127.965 101.657 L 127.964 101.657 C 125.225 101.652 122.801 101.182 120.577 100.272 C 118.318 99.289 116.424 97.964 114.782 96.222 C 113.195 94.477 111.938 92.393 110.999 89.85 C 110.084 87.369 109.597 84.516 109.597 81.227 C 109.597 78.003 110.081 75.183 110.999 72.694 L 111.015 72.654 C 111.955 70.061 113.21 67.96 114.78 66.232 C 116.415 64.498 118.283 63.21 120.522 62.286 L 120.535 62.281 L 120.568 62.265 L 120.59 62.256 L 120.6 62.251 L 120.602 62.25 C 122.829 61.285 125.245 60.794 127.988 60.792 L 127.988 60.793 Z M 137.963 106.256 L 138.088 106.555 L 137.96 106.258 L 137.963 106.256 Z"/>
  </g>
  <defs>
   <filter id="M63MaBMnHIy0APdok842SY4cU04KkYOV" width="126.222" height="191.494" x="64.89" y="30.25" filterUnits="userSpaceOnUse">
    <feGaussianBlur xmlns="http://www.w3.org/2000/svg" stdDeviation="4.955"/>
   </filter>
  </defs>
  <g>
   <g opacity=".4">
    <rect fill="#FFFFFF" width="80.062" height="7.278" x="87.97" y="176.83" transform="matrix(1,0,0,1,0,0)"/>
   </g>
   <g opacity=".4">
    <rect fill="#FFFFFF" width="80.062" height="7.278" x="87.97" y="191.39" transform="matrix(1,0,0,1,0,0)"/>
   </g>
   <path fill="#E4EBFE" d="M 128 53.333 C 124.341 53.333 120.851 54.017 117.642 55.406 L 117.641 55.407 C 114.468 56.723 111.657 58.656 109.316 61.147 L 109.306 61.158 L 109.299 61.166 L 109.295 61.17 L 109.279 61.189 C 106.992 63.699 105.234 66.709 104 70.112 L 104.04 70.018 C 104.04 70.018 104.013 70.086 103.997 70.127 L 103.999 70.116 C 103.994 70.127 103.992 70.14 103.988 70.151 C 103.987 70.153 103.985 70.157 103.985 70.158 C 103.979 70.176 103.979 70.177 103.984 70.16 L 103.941 70.299 L 103.941 70.3 C 102.728 73.662 102.136 77.322 102.136 81.226 C 102.136 85.255 102.739 89.01 104.001 92.43 C 105.237 95.78 106.996 98.755 109.275 101.257 L 109.276 101.258 L 109.277 101.261 L 109.279 101.262 L 109.295 101.28 L 109.306 101.293 L 109.316 101.304 C 110.261 102.31 111.311 103.176 112.397 103.987 C 111.72 104.197 111.032 104.375 110.375 104.633 C 105.357 106.61 101.094 109.357 97.735 112.901 L 97.727 112.91 L 97.706 112.931 L 97.681 112.962 C 94.403 116.521 91.935 120.723 90.313 125.456 L 90.292 125.501 L 90.268 125.582 C 88.764 130.287 88.027 135.332 88.027 140.669 L 88.027 150.669 L 89.385 151.757 L 89.388 151.76 L 89.432 151.795 C 89.432 151.795 92.985 154.595 99.431 157.173 C 105.87 159.749 115.42 162.274 127.999 162.274 C 140.579 162.274 150.128 159.749 156.567 157.173 C 163.013 154.595 166.566 151.795 166.566 151.795 L 166.61 151.76 L 166.613 151.757 L 167.118 151.352 L 167.973 151.352 L 167.973 140.669 C 167.973 135.324 167.183 130.267 165.583 125.556 C 165.581 125.551 165.58 125.546 165.578 125.542 L 165.557 125.481 L 165.543 125.452 C 164.001 120.694 161.515 116.46 158.128 112.899 L 158.127 112.898 C 155.655 110.291 152.69 108.118 149.302 106.365 L 148.505 105.952 L 147.83 106.545 C 146.513 107.703 145.076 108.736 143.558 109.643 L 141.346 110.964 L 143.714 111.977 C 147.428 113.567 150.392 115.584 152.714 118.033 L 152.723 118.042 C 155.365 120.822 157.257 124.03 158.475 127.828 L 158.498 127.896 L 158.505 127.915 C 159.832 131.807 160.511 136.037 160.511 140.668 L 160.511 146.87 C 159.501 147.562 157.703 148.686 153.796 150.249 C 148.153 152.506 139.584 154.814 128 154.814 C 116.416 154.814 107.845 152.506 102.202 150.248 C 98.294 148.685 96.497 147.562 95.486 146.87 L 95.486 140.668 C 95.486 136.029 96.123 131.787 97.366 127.888 C 97.366 127.887 97.365 127.886 97.366 127.886 C 98.678 124.052 100.595 120.808 103.163 118.018 L 103.165 118.015 C 105.686 115.362 108.945 113.211 113.106 111.572 C 117.15 109.979 122.085 109.121 127.948 109.116 C 127.956 109.115 127.985 109.117 127.999 109.117 C 131.629 109.117 135.088 108.475 138.278 107.166 L 138.279 107.168 L 138.338 107.145 L 138.418 107.108 L 138.432 107.101 C 141.574 105.729 144.333 103.773 146.606 101.286 C 148.954 98.783 150.758 95.797 152 92.43 C 153.262 89.01 153.865 85.253 153.865 81.224 C 153.865 77.254 153.26 73.533 152.005 70.125 L 152.002 70.115 L 151.975 70.046 L 151.955 70.008 C 150.718 66.636 148.938 63.651 146.609 61.167 C 146.607 61.165 146.606 61.162 146.604 61.16 L 146.567 61.122 L 146.526 61.087 L 146.525 61.085 C 144.251 58.622 141.493 56.705 138.355 55.405 L 138.353 55.404 C 135.272 54.071 131.928 53.407 128.43 53.355 L 128.399 53.334 L 128 53.334 L 128 53.333 Z M 127.988 60.793 L 128.011 60.793 C 130.757 60.794 133.177 61.286 135.407 62.254 L 135.412 62.255 L 135.427 62.262 L 135.452 62.273 L 135.473 62.282 C 137.718 63.207 139.547 64.487 141.119 66.212 L 141.121 66.214 L 141.136 66.231 L 141.171 66.266 C 142.792 67.995 144.061 70.085 144.996 72.668 L 144.996 72.669 C 144.996 72.67 144.997 72.67 144.997 72.671 L 145.005 72.693 C 145.923 75.182 146.409 78.002 146.409 81.226 C 146.409 84.515 145.92 87.368 145.005 89.849 C 144.072 92.377 142.802 94.448 141.165 96.191 L 141.141 96.214 L 141.114 96.245 C 139.54 97.972 137.692 99.288 135.437 100.27 C 133.224 101.177 130.813 101.647 128.092 101.657 L 128.002 101.657 C 127.991 101.657 127.979 101.657 127.966 101.657 L 127.965 101.657 L 127.964 101.657 C 125.225 101.652 122.801 101.182 120.577 100.272 C 118.318 99.289 116.424 97.964 114.782 96.222 C 113.195 94.477 111.938 92.393 110.999 89.85 C 110.084 87.369 109.597 84.516 109.597 81.227 C 109.597 78.003 110.081 75.183 110.999 72.694 L 111.015 72.654 C 111.955 70.061 113.21 67.96 114.78 66.232 C 116.415 64.498 118.283 63.21 120.522 62.286 L 120.535 62.281 L 120.568 62.265 L 120.59 62.256 L 120.6 62.251 L 120.602 62.25 C 122.829 61.285 125.245 60.794 127.988 60.792 L 127.988 60.793 Z M 137.963 106.256 L 138.088 106.555 L 137.96 106.258 L 137.963 106.256 Z"/>
  </g>
 </g>
 <g opacity=".4">
  <linearGradient id="_lgradient_260" x1=".517" x2=".517" y1="0" y2="1">
   <stop offset="0%" style="stop-color:rgb(255,255,255)"/>
   <stop offset="12.5%" stop-opacity=".098" style="stop-color:rgb(255,255,255)"/>
   <stop offset="92.5%" stop-opacity=".098" style="stop-color:rgb(0,0,0)"/>
   <stop offset="100%" stop-opacity=".498" style="stop-color:rgb(0,0,0)"/>
  </linearGradient>
  <path fill="none" stroke="url(#_lgradient_260)" stroke-linecap="round" stroke-linejoin="round" stroke-width="4.077" d="M 165.685 11.947 C 239.74 11.947 250.324 22.504 250.324 96.491 L 250.324 155.742 C 250.324 229.728 239.74 240.285 165.685 240.285 L 90.315 240.285 C 16.26 240.285 5.676 229.728 5.676 155.742 L 5.676 96.491 C 5.676 22.504 16.26 11.947 90.315 11.947 L 165.685 11.947 Z" vector-effect="non-scaling-stroke"/>
 </g>
</svg>
